X:3
T:Django
C:John Lewis
L:1/4
M:C
I:linebreak $
K:Ab
"Fm6" z A2 G |"Bbm" F3/2 =E/ F D |"C7" z B2 d |"Fm6" A3/2 G/ A F |"F7" z c2 e |$
"Gø" d3/2 c/ d B |"Eb7" z B2 d |"Ab" c3/2 =B/ c A |"Db" z A2 c |"Gm" B3/2 =A/ B G |$
"G7" =B3/2 =A/ =B G |"C7" c3/2 =B/ c g |"Fm6" z g2 f |"Bbm" z e2 d |"C7" z c2 B |$
"Eo" B2"Fm" A z |"Fm6" z G2 F |"Bbm" z E2 D |"C7" z C2 B, |"Fm6" B,2 A,2 |]

